X: 79
T: The Sunrise
C: Teton Sioux band 1911-1914
N: Derived from sioux079.krn
O: South Dakota, U.S.A.
N: Teton Sioux Music by Frances Densmore, 1918
Z: transcribed to **kern format by Craig Sapp
L: 1/16
M: 2/4
Q: 1/4=58
K: Bb clef=bass
%%linebreak <none>
F3 F [I:setbarnb 1]| 
D4D3 E | 
D4D D3 | 
D4 ]|:  
D3 D [I:setbarnb 4]||  
 [K:F] [M:3/4]C4C2 z D2< C2 D ||  
[M:2/4]B,4(B,3 G,) | 
G,4B,3 B, ||  
[M:3/4]G,4G,2 z A,2< G,2 G, ||  
[M:2/4]F,4(F,3 D,) | 
D,4G,3 G, ||  
[M:3/4]F,4F,2 z G,2< F,2 F, ||  
[M:2/4]D,4D,3 D, | 
D,8 ||  
[M:3/4]D,8 :|]  



